icon/lg/semantic-release.svg

<?xml version="1.0" encoding="UTF-8"?>
<svg viewBox="0 0 256 295" version="1.1" xmlns="http://www.w3.org/2000/svg" xmlns:xlink="http://www.w3.org/1999/xlink" preserveAspectRatio="xMidYMid" height="1em" width="1em">
  <g>
    <path d="M127.410138,176.958525 C104.706359,176.958525 90.5166452,152.380756 101.868535,132.718894 C107.13718,123.593733 116.873438,117.97235 127.410138,117.97235 C150.113917,117.97235 164.304221,142.55012 152.952332,162.211982 C147.683687,171.337143 137.947429,176.958525 127.410138,176.958525 Z M127.410138,168.110599 C143.302783,168.110599 153.236055,150.906101 145.289438,137.142857 C141.601622,130.755244 134.786359,126.820276 127.410138,126.820276 C111.517493,126.820276 101.584811,144.024774 109.531429,157.788018 C113.219244,164.175631 120.034507,168.110599 127.410138,168.110599 Z M82.5806452,38.3410138 L82.5806452,59.5760369 C83.7603687,66.0645161 94.9677419,92.0184332 103.225806,107.354839 C92.6082949,99.6866359 69.0138249,81.9907834 62.5253456,73.1428571 C58.1609585,68.1048479 54.7615853,62.3065069 52.4976959,56.0368664 L10.6175115,79.6313364 L10.6175115,130.359447 C15.9262673,133.308756 24.1843318,139.207373 28.9032258,140.976959 C35.3917051,143.336406 63.7050691,146.285714 80.8110599,146.875576 C68.4239631,152.184332 41.8801843,163.981567 30.6728111,165.16129 C21.235023,166.930876 14.7465438,165.751152 10.6175115,165.16129 L10.6175115,215.299539 L51.3179724,238.304147 C56.6267281,235.9447 65.4746544,231.225806 69.6036866,228.276498 C74.9124424,224.147465 91.4285714,201.142857 100.276498,186.396313 C99.0967742,199.373272 95.5576037,228.276498 91.4285714,238.894009 C87.8894009,247.741935 83.7603687,252.460829 81.4009217,256 L128,282.543779 L171.059908,257.769585 C171.64977,252.460829 172.239631,241.253456 171.059908,235.354839 C170.470046,228.866359 158.672811,202.912442 151.004608,187.576037 C161.62212,195.834101 184.626728,213.529954 191.705069,222.37788 C198.193548,230.046083 200.552995,236.534562 201.732719,240.073733 L245.382488,215.299539 L245.382488,165.751152 C240.663594,162.801843 231.225806,156.903226 225.327189,154.543779 C219.428571,152.184332 191.115207,149.235023 174.009217,148.645161 C186.396313,142.746544 212.940092,131.539171 224.147465,130.359447 C234.764977,128.589862 241.253456,129.769585 245.382488,130.949309 L245.382488,79.6313364 L204.092166,56.0368664 L185.806452,67.2442396 C180.497696,71.3732719 163.981567,94.3778802 154.543779,108.534562 C156.313364,95.5576037 159.852535,66.6543779 163.981567,56.0368664 C167.520737,47.1889401 171.64977,41.8801843 174.599078,38.9308756 L128,12.3870968 L82.5806452,38.3410138 Z M128,0 L256,73.7327189 L256,221.198157 L128,294.930876 L0,221.198157 L0,73.7327189 L128,0 Z" fill="#494949"/>
  </g>
</svg>

<svg width="256" height="295" xmlns="http://www.w3.org/2000/svg" preserveAspectRatio="xMidYMid"><path d="M127.41 176.959c-22.704 0-36.893-24.578-25.541-44.24a29.493 29.493 0 0 1 25.541-14.747c22.704 0 36.894 24.578 25.542 44.24a29.494 29.494 0 0 1-25.542 14.747Zm0-8.848c15.893 0 25.826-17.205 17.88-30.968a20.645 20.645 0 0 0-17.88-10.323c-15.893 0-25.825 17.205-17.879 30.968a20.644 20.644 0 0 0 17.88 10.323ZM82.58 38.34v21.235c1.18 6.489 12.388 32.442 20.646 47.779-10.618-7.668-34.212-25.364-40.7-34.212a54.28 54.28 0 0 1-10.028-17.106L10.618 79.63v50.728c5.308 2.95 13.566 8.848 18.285 10.618 6.489 2.36 34.802 5.309 51.908 5.899-12.387 5.308-38.93 17.106-50.138 18.285-9.438 1.77-15.926.59-20.055 0V215.3l40.7 23.004c5.309-2.36 14.157-7.078 18.286-10.028 5.308-4.129 21.825-27.133 30.672-41.88-1.18 12.977-4.718 41.88-8.847 52.498-3.54 8.848-7.669 13.567-10.028 17.106L128 282.544l43.06-24.774c.59-5.31 1.18-16.517 0-22.415-.59-6.489-12.387-32.443-20.055-47.779 10.617 8.258 33.622 25.954 40.7 34.802 6.489 7.668 8.848 14.157 10.028 17.696l43.65-24.774V165.75c-4.72-2.95-14.157-8.848-20.056-11.207-5.898-2.36-34.212-5.309-51.318-5.899 12.387-5.898 38.931-17.106 50.138-18.286 10.618-1.77 17.106-.59 21.235.59V79.631l-41.29-23.594-18.286 11.207c-5.308 4.13-21.824 27.134-31.262 41.29 1.77-12.976 5.309-41.88 9.438-52.497 3.539-8.848 7.668-14.157 10.617-17.106L128 12.387 82.58 38.341ZM128 0l128 73.733v147.465l-128 73.733L0 221.198V73.733L128 0Z" fill="#494949"/></svg>
